static/images/design-patterns/strategy.svg

<svg contentScriptType="application/ecmascript" contentStyleType="text/css" height="452" preserveAspectRatio="none" viewBox="0 0 674 452" width="674" xmlns="http://www.w3.org/2000/svg" xmlns:xlink="http://www.w3.org/1999/xlink" zoomAndPan="magnify"><filter id="a" height="300%" width="300%" x="-1" y="-1"><feGaussianBlur result="blurOut" stdDeviation="2"/><feColorMatrix in="blurOut" result="blurOut2" type="matrix" values="0 0 0 0 0 0 0 0 0 0 0 0 0 0 0 0 0 0 .4 0"/><feOffset dx="4" dy="4" in="blurOut2" result="blurOut3"/><feBlend in="SourceGraphic" in2="blurOut3" mode="normal"/></filter><text font-family="sans-serif" font-size="18" font-weight="bold" lengthAdjust="spacingAndGlyphs" textLength="72" x="304.5" y="17.4023">策略模式</text><path d="m105.5 145.1992h122v73.9102h-122z" fill="#fefece" filter="url(#a)" stroke="#a80036" stroke-width="1.5"/><ellipse cx="141.2" cy="161.1992" fill="#add1b2" rx="11" ry="11" stroke="#a80036"/><path d="m144.1731 166.8423q-.581.2988-1.2202.4482-.6391.1494-1.3447.1494-2.5068 0-3.8267-1.6518-1.3198-1.6519-1.3198-4.773 0-3.1294 1.3198-4.7812 1.3199-1.6519 3.8267-1.6519.7056 0 1.353.1494.6475.1495 1.2119.4483v2.7226q-.6308-.581-1.2243-.8508-.5935-.2698-1.2244-.2698-1.3447 0-2.0295 1.0667-.6848 1.0666-.6848 3.1667 0 2.0918.6848 3.1585.6848 1.0666 2.0295 1.0666.6309 0 1.2244-.2697.5935-.2698 1.2243-.8509z"/><text font-family="sans-serif" font-size="12" lengthAdjust="spacingAndGlyphs" textLength="44" x="159.8" y="165.7344">Context</text><path d="m106.5 177.1992h120" stroke="#a80036" stroke-width="1.5"/><path d="m113.5 186.1768h6v6h-6z" fill="none" stroke="#c82930"/><text font-family="sans-serif" font-size="11" lengthAdjust="spacingAndGlyphs" textLength="94" x="125.5" y="191.834">strategy :Strategy</text><path d="m106.5 198.1543h120" stroke="#a80036" stroke-width="1.5"/><ellipse cx="116.5" cy="210.1318" fill="#84be84" rx="3" ry="3" stroke="#038048"/><text font-family="sans-serif" font-size="11" lengthAdjust="spacingAndGlyphs" textLength="96" x="125.5" y="212.7891">contextInterface()</text><path d="m6 29.1992v55.9317a0 0 0 0 0 0 0h120.0477l26.3736 59.625-18.3736-59.625h98.9523a0 0 0 0 0 0 0v-45.9317l-10-10h-217a0 0 0 0 0 0 0" fill="#fbfb77" filter="url(#a)" stroke="#a80036"/><path d="m223 29.1992v10h10z" fill="#fbfb77" stroke="#a80036"/><text font-family="sans-serif" font-size="13" lengthAdjust="spacingAndGlyphs" textLength="106" x="12" y="46.7676">Context 上下文，</text><text font-family="sans-serif" font-size="13" lengthAdjust="spacingAndGlyphs" textLength="206" x="12" y="62.0781">用一个 ConcreteStrategy 来配置，</text><text font-family="sans-serif" font-size="13" lengthAdjust="spacingAndGlyphs" textLength="202" x="12" y="77.3887">维护一个对 Strategy 对象的引用。</text><path d="m321 151.6992h133v60.9551h-133z" fill="#fefece" filter="url(#a)" stroke="#a80036" stroke-width="1.5"/><ellipse cx="360.75" cy="167.6992" fill="#a9dcdf" rx="11" ry="11" stroke="#a80036"/><path d="m360.8633 163.0474-1.1538 5.0717h2.3159zm-1.4942-2.2412h2.9966l3.3452 12.393h-2.4487l-.7637-3.063h-3.2788l-.747 3.063h-2.4488z"/><text font-family="sans-serif" font-size="12" font-style="italic" lengthAdjust="spacingAndGlyphs" textLength="46" x="380.25" y="172.2344">Strategy</text><path d="m322 183.6992h131" stroke="#a80036" stroke-width="1.5"/><path d="m322 191.6992h131" stroke="#a80036" stroke-width="1.5"/><ellipse cx="332" cy="203.6768" fill="#84be84" rx="3" ry="3" stroke="#038048"/><text font-family="sans-serif" font-size="11" font-style="italic" lengthAdjust="spacingAndGlyphs" textLength="107" x="341" y="206.334">algorithmInterface()</text><path d="m303.5 36.6992v40.6211a0 0 0 0 0 0 0h100.0369l-10.1802 74.3754 18.1802-74.3754h107.9631a0 0 0 0 0 0 0v-30.6211l-10-10h-206a0 0 0 0 0 0 0" fill="#fbfb77" filter="url(#a)" stroke="#a80036"/><path d="m509.5 36.6992v10h10z" fill="#fbfb77" stroke="#a80036"/><text font-family="sans-serif" font-size="13" lengthAdjust="spacingAndGlyphs" textLength="52" x="309.5" y="54.2676">策略类，</text><text font-family="sans-serif" font-size="13" lengthAdjust="spacingAndGlyphs" textLength="195" x="309.5" y="69.5781">定义所有支持的算法的公共接口。</text><path d="m112 279.1992h137v60.9551h-137z" fill="#fefece" filter="url(#a)" stroke="#a80036" stroke-width="1.5"/><ellipse cx="127" cy="295.1992" fill="#add1b2" rx="11" ry="11" stroke="#a80036"/><path d="m129.9731 300.8423q-.581.2988-1.2202.4482-.6391.1494-1.3447.1494-2.5068 0-3.8267-1.6518-1.3198-1.6519-1.3198-4.773 0-3.1294 1.3198-4.7812 1.3199-1.6519 3.8267-1.6519.7056 0 1.353.1494.6475.1495 1.2119.4483v2.7226q-.6308-.581-1.2243-.8508-.5935-.2698-1.2244-.2698-1.3447 0-2.0295 1.0667-.6848 1.0666-.6848 3.1667 0 2.0918.6848 3.1585.6848 1.0666 2.0295 1.0666.6309 0 1.2244-.2697.5935-.2698 1.2243-.8509z"/><text font-family="sans-serif" font-size="12" lengthAdjust="spacingAndGlyphs" textLength="105" x="141" y="299.7344">ConcreteStrategyA</text><path d="m113 311.1992h135" stroke="#a80036" stroke-width="1.5"/><path d="m113 319.1992h135" stroke="#a80036" stroke-width="1.5"/><ellipse cx="123" cy="331.1768" fill="#84be84" rx="3" ry="3" stroke="#038048"/><text font-family="sans-serif" font-size="11" lengthAdjust="spacingAndGlyphs" textLength="107" x="132" y="333.834">algorithmInterface()</text><path d="m319.5 279.1992h136v60.9551h-136z" fill="#fefece" filter="url(#a)" stroke="#a80036" stroke-width="1.5"/><ellipse cx="334.5" cy="295.1992" fill="#add1b2" rx="11" ry="11" stroke="#a80036"/><path d="m337.4731 300.8423q-.581.2988-1.2202.4482-.6391.1494-1.3447.1494-2.5068 0-3.8267-1.6518-1.3198-1.6519-1.3198-4.773 0-3.1294 1.3198-4.7812 1.3199-1.6519 3.8267-1.6519.7056 0 1.353.1494.6475.1495 1.2119.4483v2.7226q-.6308-.581-1.2243-.8508-.5935-.2698-1.2244-.2698-1.3447 0-2.0295 1.0667-.6848 1.0666-.6848 3.1667 0 2.0918.6848 3.1585.6848 1.0666 2.0295 1.0666.6309 0 1.2244-.2697.5935-.2698 1.2243-.8509z"/><text font-family="sans-serif" font-size="12" lengthAdjust="spacingAndGlyphs" textLength="104" x="348.5" y="299.7344">ConcreteStrategyB</text><path d="m320.5 311.1992h134" stroke="#a80036" stroke-width="1.5"/><path d="m320.5 319.1992h134" stroke="#a80036" stroke-width="1.5"/><ellipse cx="330.5" cy="331.1768" fill="#84be84" rx="3" ry="3" stroke="#038048"/><text font-family="sans-serif" font-size="11" lengthAdjust="spacingAndGlyphs" textLength="107" x="339.5" y="333.834">algorithmInterface()</text><path d="m526 279.1992h137v60.9551h-137z" fill="#fefece" filter="url(#a)" stroke="#a80036" stroke-width="1.5"/><ellipse cx="541" cy="295.1992" fill="#add1b2" rx="11" ry="11" stroke="#a80036"/><path d="m543.9731 300.8423q-.581.2988-1.2202.4482-.6391.1494-1.3447.1494-2.5068 0-3.8267-1.6518-1.3198-1.6519-1.3198-4.773 0-3.1294 1.3198-4.7812 1.3199-1.6519 3.8267-1.6519.7056 0 1.353.1494.6475.1495 1.2119.4483v2.7226q-.6308-.581-1.2243-.8508-.5935-.2698-1.2244-.2698-1.3447 0-2.0295 1.0667-.6848 1.0666-.6848 3.1667 0 2.0918.6848 3.1585.6848 1.0666 2.0295 1.0666.6309 0 1.2244-.2697.5935-.2698 1.2243-.8509z"/><text font-family="sans-serif" font-size="12" lengthAdjust="spacingAndGlyphs" textLength="105" x="555" y="299.7344">ConcreteStrategyC</text><path d="m527 311.1992h135" stroke="#a80036" stroke-width="1.5"/><path d="m527 319.1992h135" stroke="#a80036" stroke-width="1.5"/><ellipse cx="537" cy="331.1768" fill="#84be84" rx="3" ry="3" stroke="#038048"/><text font-family="sans-serif" font-size="11" lengthAdjust="spacingAndGlyphs" textLength="107" x="546" y="333.834">algorithmInterface()</text><path d="m245.5 400.1992v40.6211h284v-30.6211l-10-10z" fill="#fbfb77" filter="url(#a)" stroke="#a80036"/><path d="m519.5 400.1992v10h10z" fill="#fbfb77" stroke="#a80036"/><text font-family="sans-serif" font-size="13" lengthAdjust="spacingAndGlyphs" textLength="78" x="251.5" y="417.7676">具体策略类，</text><text font-family="sans-serif" font-size="13" lengthAdjust="spacingAndGlyphs" textLength="263" x="251.5" y="433.0781">封装了具体的算法或行为，继承于 Strategy。</text><path d="m240.8647 182.1992h79.8828" fill="none" stroke="#a80036"/><path d="m227.793 182.1992 6 4 6-4-6-4z" fill="#a80036" stroke="#a80036"/><text font-family="sans-serif" font-size="13" lengthAdjust="spacingAndGlyphs" textLength="59" x="235.5955" y="179.1403">-strategy</text><g fill="none" stroke="#a80036"><path d="m320.7178 223.3332c-29.4782 18.1568-63.522 39.1258-90.6824 55.8551" stroke-dasharray="7 7"/><path d="m317.2183 217.2674 20.7-4.5288-13.3578 16.449z"/><path d="m387.5 232.9347v46.0324" stroke-dasharray="7 7"/><path d="m380.5001 232.7387 6.9999-20.0001 7.0001 20z"/><path d="m454.2822 223.3332c29.4782 18.1568 63.522 39.1258 90.6824 55.8551" stroke-dasharray="7 7"/><path d="m450.4395 229.1876-13.3578-16.449 20.7 4.5288z"/><path d="m237.6116 340.3243c35.5419 19.0586 80.2856 43.0517 111.5962 59.8414" stroke-dasharray="7 7"/><path d="m387.5 340.3243v59.6716" stroke-dasharray="7 7"/><path d="m537.3884 340.3243c-35.5419 19.0586-80.2856 43.0517-111.5962 59.8414" stroke-dasharray="7 7"/></g></svg>

<?xml version="1.0" encoding="UTF-8" standalone="no"?><svg xmlns="http://www.w3.org/2000/svg" xmlns:xlink="http://www.w3.org/1999/xlink" contentScriptType="application/ecmascript" contentStyleType="text/css" height="452px" preserveAspectRatio="none" style="width:674px;height:452px;" version="1.1" viewBox="0 0 674 452" width="674px" zoomAndPan="magnify"><defs><filter height="300%" id="f24buljsqg9sk" width="300%" x="-1" y="-1"><feGaussianBlur result="blurOut" stdDeviation="2.0"/><feColorMatrix in="blurOut" result="blurOut2" type="matrix" values="0 0 0 0 0 0 0 0 0 0 0 0 0 0 0 0 0 0 .4 0"/><feOffset dx="4.0" dy="4.0" in="blurOut2" result="blurOut3"/><feBlend in="SourceGraphic" in2="blurOut3" mode="normal"/></filter></defs><g><text fill="#000000" font-family="sans-serif" font-size="18" font-weight="bold" lengthAdjust="spacingAndGlyphs" textLength="72" x="304.5" y="17.4023">策略模式</text><!--class Context--><rect fill="#FEFECE" filter="url(#f24buljsqg9sk)" height="73.9102" id="Context" style="stroke: #A80036; stroke-width: 1.5;" width="122" x="105.5" y="145.1992"/><ellipse cx="141.2" cy="161.1992" fill="#ADD1B2" rx="11" ry="11" style="stroke: #A80036; stroke-width: 1.0;"/><path d="M144.1731,166.8423 Q143.5921,167.1411 142.9529,167.2905 Q142.3138,167.4399 141.6082,167.4399 Q139.1014,167.4399 137.7815,165.7881 Q136.4617,164.1362 136.4617,161.0151 Q136.4617,157.8857 137.7815,156.2339 Q139.1014,154.582 141.6082,154.582 Q142.3138,154.582 142.9612,154.7314 Q143.6087,154.8809 144.1731,155.1797 L144.1731,157.9023 Q143.5423,157.3213 142.9488,157.0515 Q142.3553,156.7817 141.7244,156.7817 Q140.3797,156.7817 139.6949,157.8484 Q139.0101,158.915 139.0101,161.0151 Q139.0101,163.1069 139.6949,164.1736 Q140.3797,165.2402 141.7244,165.2402 Q142.3553,165.2402 142.9488,164.9705 Q143.5423,164.7007 144.1731,164.1196 Z "/><text fill="#000000" font-family="sans-serif" font-size="12" lengthAdjust="spacingAndGlyphs" textLength="44" x="159.8" y="165.7344">Context</text><line style="stroke: #A80036; stroke-width: 1.5;" x1="106.5" x2="226.5" y1="177.1992" y2="177.1992"/><rect fill="none" height="6" style="stroke: #C82930; stroke-width: 1.0;" width="6" x="113.5" y="186.1768"/><text fill="#000000" font-family="sans-serif" font-size="11" lengthAdjust="spacingAndGlyphs" textLength="94" x="125.5" y="191.834">strategy :Strategy</text><line style="stroke: #A80036; stroke-width: 1.5;" x1="106.5" x2="226.5" y1="198.1543" y2="198.1543"/><ellipse cx="116.5" cy="210.1318" fill="#84BE84" rx="3" ry="3" style="stroke: #038048; stroke-width: 1.0;"/><text fill="#000000" font-family="sans-serif" font-size="11" lengthAdjust="spacingAndGlyphs" textLength="96" x="125.5" y="212.7891">contextInterface()</text><path d="M6,29.1992 L6,85.1309 A0,0 0 0 0 6,85.1309 L126.0477,85.1309 L152.4213,144.7559 L134.0477,85.1309 L233,85.1309 A0,0 0 0 0 233,85.1309 L233,39.1992 L223,29.1992 L6,29.1992 A0,0 0 0 0 6,29.1992 " fill="#FBFB77" filter="url(#f24buljsqg9sk)" style="stroke: #A80036; stroke-width: 1.0;"/><path d="M223,29.1992 L223,39.1992 L233,39.1992 L223,29.1992 " fill="#FBFB77" style="stroke: #A80036; stroke-width: 1.0;"/><text fill="#000000" font-family="sans-serif" font-size="13" lengthAdjust="spacingAndGlyphs" textLength="106" x="12" y="46.7676">Context 上下文，</text><text fill="#000000" font-family="sans-serif" font-size="13" lengthAdjust="spacingAndGlyphs" textLength="206" x="12" y="62.0781">用一个 ConcreteStrategy 来配置，</text><text fill="#000000" font-family="sans-serif" font-size="13" lengthAdjust="spacingAndGlyphs" textLength="202" x="12" y="77.3887">维护一个对 Strategy 对象的引用。</text><!--class Strategy--><rect fill="#FEFECE" filter="url(#f24buljsqg9sk)" height="60.9551" id="Strategy" style="stroke: #A80036; stroke-width: 1.5;" width="133" x="321" y="151.6992"/><ellipse cx="360.75" cy="167.6992" fill="#A9DCDF" rx="11" ry="11" style="stroke: #A80036; stroke-width: 1.0;"/><path d="M360.8633,163.0474 L359.7095,168.1191 L362.0254,168.1191 Z M359.3691,160.8062 L362.3657,160.8062 L365.7109,173.1992 L363.2622,173.1992 L362.4985,170.1362 L359.2197,170.1362 L358.4727,173.1992 L356.0239,173.1992 Z "/><text fill="#000000" font-family="sans-serif" font-size="12" font-style="italic" lengthAdjust="spacingAndGlyphs" textLength="46" x="380.25" y="172.2344">Strategy</text><line style="stroke: #A80036; stroke-width: 1.5;" x1="322" x2="453" y1="183.6992" y2="183.6992"/><line style="stroke: #A80036; stroke-width: 1.5;" x1="322" x2="453" y1="191.6992" y2="191.6992"/><ellipse cx="332" cy="203.6768" fill="#84BE84" rx="3" ry="3" style="stroke: #038048; stroke-width: 1.0;"/><text fill="#000000" font-family="sans-serif" font-size="11" font-style="italic" lengthAdjust="spacingAndGlyphs" textLength="107" x="341" y="206.334">algorithmInterface()</text><path d="M303.5,36.6992 L303.5,77.3203 A0,0 0 0 0 303.5,77.3203 L403.5369,77.3203 L393.3567,151.6957 L411.5369,77.3203 L519.5,77.3203 A0,0 0 0 0 519.5,77.3203 L519.5,46.6992 L509.5,36.6992 L303.5,36.6992 A0,0 0 0 0 303.5,36.6992 " fill="#FBFB77" filter="url(#f24buljsqg9sk)" style="stroke: #A80036; stroke-width: 1.0;"/><path d="M509.5,36.6992 L509.5,46.6992 L519.5,46.6992 L509.5,36.6992 " fill="#FBFB77" style="stroke: #A80036; stroke-width: 1.0;"/><text fill="#000000" font-family="sans-serif" font-size="13" lengthAdjust="spacingAndGlyphs" textLength="52" x="309.5" y="54.2676">策略类，</text><text fill="#000000" font-family="sans-serif" font-size="13" lengthAdjust="spacingAndGlyphs" textLength="195" x="309.5" y="69.5781">定义所有支持的算法的公共接口。</text><!--class ConcreteStrategyA--><rect fill="#FEFECE" filter="url(#f24buljsqg9sk)" height="60.9551" id="ConcreteStrategyA" style="stroke: #A80036; stroke-width: 1.5;" width="137" x="112" y="279.1992"/><ellipse cx="127" cy="295.1992" fill="#ADD1B2" rx="11" ry="11" style="stroke: #A80036; stroke-width: 1.0;"/><path d="M129.9731,300.8423 Q129.3921,301.1411 128.7529,301.2905 Q128.1138,301.4399 127.4082,301.4399 Q124.9014,301.4399 123.5815,299.7881 Q122.2617,298.1362 122.2617,295.0151 Q122.2617,291.8857 123.5815,290.2339 Q124.9014,288.582 127.4082,288.582 Q128.1138,288.582 128.7612,288.7314 Q129.4087,288.8809 129.9731,289.1797 L129.9731,291.9023 Q129.3423,291.3213 128.7488,291.0515 Q128.1553,290.7817 127.5244,290.7817 Q126.1797,290.7817 125.4949,291.8484 Q124.8101,292.915 124.8101,295.0151 Q124.8101,297.1069 125.4949,298.1736 Q126.1797,299.2402 127.5244,299.2402 Q128.1553,299.2402 128.7488,298.9705 Q129.3423,298.7007 129.9731,298.1196 Z "/><text fill="#000000" font-family="sans-serif" font-size="12" lengthAdjust="spacingAndGlyphs" textLength="105" x="141" y="299.7344">ConcreteStrategyA</text><line style="stroke: #A80036; stroke-width: 1.5;" x1="113" x2="248" y1="311.1992" y2="311.1992"/><line style="stroke: #A80036; stroke-width: 1.5;" x1="113" x2="248" y1="319.1992" y2="319.1992"/><ellipse cx="123" cy="331.1768" fill="#84BE84" rx="3" ry="3" style="stroke: #038048; stroke-width: 1.0;"/><text fill="#000000" font-family="sans-serif" font-size="11" lengthAdjust="spacingAndGlyphs" textLength="107" x="132" y="333.834">algorithmInterface()</text><!--class ConcreteStrategyB--><rect fill="#FEFECE" filter="url(#f24buljsqg9sk)" height="60.9551" id="ConcreteStrategyB" style="stroke: #A80036; stroke-width: 1.5;" width="136" x="319.5" y="279.1992"/><ellipse cx="334.5" cy="295.1992" fill="#ADD1B2" rx="11" ry="11" style="stroke: #A80036; stroke-width: 1.0;"/><path d="M337.4731,300.8423 Q336.8921,301.1411 336.2529,301.2905 Q335.6138,301.4399 334.9082,301.4399 Q332.4014,301.4399 331.0815,299.7881 Q329.7617,298.1362 329.7617,295.0151 Q329.7617,291.8857 331.0815,290.2339 Q332.4014,288.582 334.9082,288.582 Q335.6138,288.582 336.2612,288.7314 Q336.9087,288.8809 337.4731,289.1797 L337.4731,291.9023 Q336.8423,291.3213 336.2488,291.0515 Q335.6553,290.7817 335.0244,290.7817 Q333.6797,290.7817 332.9949,291.8484 Q332.3101,292.915 332.3101,295.0151 Q332.3101,297.1069 332.9949,298.1736 Q333.6797,299.2402 335.0244,299.2402 Q335.6553,299.2402 336.2488,298.9705 Q336.8423,298.7007 337.4731,298.1196 Z "/><text fill="#000000" font-family="sans-serif" font-size="12" lengthAdjust="spacingAndGlyphs" textLength="104" x="348.5" y="299.7344">ConcreteStrategyB</text><line style="stroke: #A80036; stroke-width: 1.5;" x1="320.5" x2="454.5" y1="311.1992" y2="311.1992"/><line style="stroke: #A80036; stroke-width: 1.5;" x1="320.5" x2="454.5" y1="319.1992" y2="319.1992"/><ellipse cx="330.5" cy="331.1768" fill="#84BE84" rx="3" ry="3" style="stroke: #038048; stroke-width: 1.0;"/><text fill="#000000" font-family="sans-serif" font-size="11" lengthAdjust="spacingAndGlyphs" textLength="107" x="339.5" y="333.834">algorithmInterface()</text><!--class ConcreteStrategyC--><rect fill="#FEFECE" filter="url(#f24buljsqg9sk)" height="60.9551" id="ConcreteStrategyC" style="stroke: #A80036; stroke-width: 1.5;" width="137" x="526" y="279.1992"/><ellipse cx="541" cy="295.1992" fill="#ADD1B2" rx="11" ry="11" style="stroke: #A80036; stroke-width: 1.0;"/><path d="M543.9731,300.8423 Q543.3921,301.1411 542.7529,301.2905 Q542.1138,301.4399 541.4082,301.4399 Q538.9014,301.4399 537.5815,299.7881 Q536.2617,298.1362 536.2617,295.0151 Q536.2617,291.8857 537.5815,290.2339 Q538.9014,288.582 541.4082,288.582 Q542.1138,288.582 542.7612,288.7314 Q543.4087,288.8809 543.9731,289.1797 L543.9731,291.9023 Q543.3423,291.3213 542.7488,291.0515 Q542.1553,290.7817 541.5244,290.7817 Q540.1797,290.7817 539.4949,291.8484 Q538.8101,292.915 538.8101,295.0151 Q538.8101,297.1069 539.4949,298.1736 Q540.1797,299.2402 541.5244,299.2402 Q542.1553,299.2402 542.7488,298.9705 Q543.3423,298.7007 543.9731,298.1196 Z "/><text fill="#000000" font-family="sans-serif" font-size="12" lengthAdjust="spacingAndGlyphs" textLength="105" x="555" y="299.7344">ConcreteStrategyC</text><line style="stroke: #A80036; stroke-width: 1.5;" x1="527" x2="662" y1="311.1992" y2="311.1992"/><line style="stroke: #A80036; stroke-width: 1.5;" x1="527" x2="662" y1="319.1992" y2="319.1992"/><ellipse cx="537" cy="331.1768" fill="#84BE84" rx="3" ry="3" style="stroke: #038048; stroke-width: 1.0;"/><text fill="#000000" font-family="sans-serif" font-size="11" lengthAdjust="spacingAndGlyphs" textLength="107" x="546" y="333.834">algorithmInterface()</text><path d="M245.5,400.1992 L245.5,440.8203 L529.5,440.8203 L529.5,410.1992 L519.5,400.1992 L245.5,400.1992 " fill="#FBFB77" filter="url(#f24buljsqg9sk)" style="stroke: #A80036; stroke-width: 1.0;"/><path d="M519.5,400.1992 L519.5,410.1992 L529.5,410.1992 L519.5,400.1992 " fill="#FBFB77" style="stroke: #A80036; stroke-width: 1.0;"/><text fill="#000000" font-family="sans-serif" font-size="13" lengthAdjust="spacingAndGlyphs" textLength="78" x="251.5" y="417.7676">具体策略类，</text><text fill="#000000" font-family="sans-serif" font-size="13" lengthAdjust="spacingAndGlyphs" textLength="263" x="251.5" y="433.0781">封装了具体的算法或行为，继承于 Strategy。</text><!--link Context to Strategy--><path d="M240.8647,182.1992 C267.4923,182.1992 294.1199,182.1992 320.7475,182.1992 " fill="none" id="Context-Strategy" style="stroke: #A80036; stroke-width: 1.0;"/><polygon fill="#A80036" points="227.793,182.1992,233.793,186.1992,239.793,182.1992,233.793,178.1992,227.793,182.1992" style="stroke: #A80036; stroke-width: 1.0;"/><text fill="#000000" font-family="sans-serif" font-size="13" lengthAdjust="spacingAndGlyphs" textLength="59" x="235.5955" y="179.1403">-strategy</text><!--link Strategy to ConcreteStrategyA--><path d="M320.7178,223.3332 C291.2396,241.49 257.1958,262.459 230.0354,279.1883 " fill="none" id="Strategy-ConcreteStrategyA" style="stroke: #A80036; stroke-width: 1.0; stroke-dasharray: 7.0,7.0;"/><polygon fill="none" points="317.2183,217.2674,337.9183,212.7386,324.5605,229.1876,317.2183,217.2674" style="stroke: #A80036; stroke-width: 1.0;"/><!--link Strategy to ConcreteStrategyB--><path d="M387.5,232.9347 C387.5,248.5082 387.5,265.1639 387.5,278.9671 " fill="none" id="Strategy-ConcreteStrategyB" style="stroke: #A80036; stroke-width: 1.0; stroke-dasharray: 7.0,7.0;"/><polygon fill="none" points="380.5001,232.7387,387.5,212.7386,394.5001,232.7386,380.5001,232.7387" style="stroke: #A80036; stroke-width: 1.0;"/><!--link Strategy to ConcreteStrategyC--><path d="M454.2822,223.3332 C483.7604,241.49 517.8042,262.459 544.9646,279.1883 " fill="none" id="Strategy-ConcreteStrategyC" style="stroke: #A80036; stroke-width: 1.0; stroke-dasharray: 7.0,7.0;"/><polygon fill="none" points="450.4395,229.1876,437.0817,212.7386,457.7817,217.2674,450.4395,229.1876" style="stroke: #A80036; stroke-width: 1.0;"/><!--link ConcreteStrategyA to scn--><path d="M237.6116,340.3243 C273.1535,359.3829 317.8972,383.376 349.2078,400.1657 " fill="none" id="ConcreteStrategyA-scn" style="stroke: #A80036; stroke-width: 1.0; stroke-dasharray: 7.0,7.0;"/><!--link ConcreteStrategyB to scn--><path d="M387.5,340.3243 C387.5,359.3188 387.5,383.2145 387.5,399.9959 " fill="none" id="ConcreteStrategyB-scn" style="stroke: #A80036; stroke-width: 1.0; stroke-dasharray: 7.0,7.0;"/><!--link ConcreteStrategyC to scn--><path d="M537.3884,340.3243 C501.8465,359.3829 457.1028,383.376 425.7922,400.1657 " fill="none" id="ConcreteStrategyC-scn" style="stroke: #A80036; stroke-width: 1.0; stroke-dasharray: 7.0,7.0;"/><!--
@startuml
skinparam nodesep 70

title <b>策略模式</b>

class Context {
  - strategy :Strategy
  + contextInterface()
}
note top: Context 上下文，\n用一个 ConcreteStrategy 来配置，\n维护一个对 Strategy 对象的引用。

abstract class Strategy {
  + {abstract} algorithmInterface()
}
note top: 策略类，\n定义所有支持的算法的公共接口。

class ConcreteStrategyA {
  + algorithmInterface()
}

class ConcreteStrategyB {
  + algorithmInterface()
}

class ConcreteStrategyC {
  + algorithmInterface()
}

Context "-strategy" *-right- Strategy

Strategy <|.. ConcreteStrategyA
Strategy <|.. ConcreteStrategyB
Strategy <|.. ConcreteStrategyC


note "具体策略类，\n封装了具体的算法或行为，继承于 Strategy。" as scn
ConcreteStrategyA .. scn
ConcreteStrategyB .. scn
ConcreteStrategyC .. scn

@enduml

PlantUML version 1.2018.01(Mon Jan 29 02:08:22 CST 2018)
(APACHE source distribution)
Java Runtime: Java(TM) SE Runtime Environment
JVM: Java HotSpot(TM) 64-Bit Server VM
Java Version: 1.8.0_161-b12
Operating System: Mac OS X
OS Version: 10.13.3
Default Encoding: UTF-8
Language: en
Country: CN
--></g></svg>
